!!!!SEGMENT: Ric2004-Emendemus_in_melius.krn
!!!id: Ric2004
!!!AGN: Motet
!!!SCT: Elzinga (1999)
!!!voices: 4
!!!COM: Jean Richafort
!!!OTL: Emendemus in melius
**kern	**kern	**kern	**kern
*part4	*part3	*part2	*part1
*staff4	*staff3	*staff2	*staff1
*I"Bassus	*I"Tenor	*I"Altus	*I"Superius
*I'B	*I'T	*I'A	*I'S
*clefF4	*clefGv2	*clefGv2	*clefG2
*k[]	*k[]	*k[]	*k[]
*C:	*C:	*C:	*C:
*M2/1	*M2/1	*M2/1	*M2/1
*met(C|)	*met(C|)	*met(C|)	*met(C|)
!!section: Prima pars: Emendemus in melius
!!!OMD: Prima pars: Emendemus in melius
=1	=1	=1	=1
1r	1E	0r	0r
1E	1E	.	.
=2	=2	=2	=2
2E	2.G	1E	0r
2.G	.	.	.
.	4A	.	.
.	2B	1E	.
4F	.	.	.
4E	[2c	.	.
4D	.	.	.
=3	=3	=3	=3
4C	2c]	2.G	0r
4BB	.	.	.
2.E	4B	.	.
.	4A	4A	.
.	1G	2B	.
4D	.	.	.
4C	.	[2c	.
4BB	.	.	.
=4	=4	=4	=4
4AA	0r	4c]	0r
4GG	.	4B	.
2C	.	1A	.
1BB	.	.	.
.	.	2G#i	.
=5	=5	=5	=5
0AA	1E	1A	0r
.	1E	2r	.
.	.	2E	.
=6	=6	=6	=6
0r	2.G	2.E	1e
.	4A	4F	.
.	2B	2G	1e
.	[2c	2A	.
=7	=7	=7	=7
2r	2c]	1E	2.g
2E	4B	.	.
.	4A	.	4a
2.E	2G	1r	4b
.	.	.	4g
.	[2e	.	2cc
4F	.	.	.
=8	=8	=8	=8
2G	4e]	2r	2b
.	4d	.	.
2A	2c	2e	1a
1E	1B	2.e	.
.	.	.	2g#i
.	.	4d	.
=9	=9	=9	=9
2F	[0A	2c	0a
2.D	.	2.f	.
4C	.	4e	.
4D	.	4f	.
8CL	.	4d	.
8BBJ	.	.	.
=10	=10	=10	=10
1AA	0A]	0e	2r
.	.	.	2cc
2r	.	.	2.cc
2A	.	.	.
.	.	.	4b
=11	=11	=11	=11
2A	0r	2r	4cc
.	.	.	4a
2G	.	2d	2b
2F	.	2d	2a
[2A	.	2c	[2cc
=12	=12	=12	=12
4A]	2r	2A	4cc]
4G	.	.	4b
4F	2c	2.f	4a
4E	.	.	4g
1F	2.c	.	1a
.	.	4e	.
.	.	4f	.
.	4B	4d	.
=13	=13	=13	=13
1E	4c	0e	1g
.	4A	.	.
.	2B	.	.
2r	2A	.	1r
2C	[2c	.	.
=14	=14	=14	=14
2D	2c]	1r	2r
2E	2B	.	2g
1F	1A	2r	2.a
.	.	2c	.
.	.	.	4b
=15	=15	=15	=15
0C	1G	2c	1.cc
.	.	2c	.
.	2r	2G	.
.	2G	[2c	2g
=16	=16	=16	=16
0r	1A	4c]	2.cc
.	.	4B	.
.	.	4A	.
.	.	4G	4b
.	1c	4F	4a
.	.	4E	4g
.	.	4F	[2a
.	.	4G	.
=17	=17	=17	=17
2r	2.c	4A	2a]
.	.	4B	.
2C	.	2.c	2g
.	4B	.	.
2D	2A	.	2f
.	.	4B	.
2E	2G	[2B	[2e
=18	=18	=18	=18
1F	1A	4B]	2e]
.	.	4A	.
.	.	1A	2d
1E	1B	.	[1e
.	.	2G#i	.
=19	=19	=19	=19
2AA	1A	1A	1e]
1A	.	.	.
.	1r	1E	2r
2G	.	.	2g
=20	=20	=20	=20
2F	1r	1r	2a
4E	.	.	2b
4D	.	.	.
1C	2r	1e	[1cc
.	2G	.	.
=21	=21	=21	=21
2r	2A	2c	2cc]
2G	2B	2d	2b
2E	1c	2e	2g
2F	.	[2A	2a
=22	=22	=22	=22
2.G	1B	4A]	2b
.	.	4G	.
.	.	2G	2.dd
4E	.	.	.
4F	2.A	1c	.
4G	.	.	4cc
[2A	.	.	[2cc
.	4B	.	.
=23	=23	=23	=23
4A]	2c	2A	4cc]
4G	.	.	4b
4F	2.d	2A	4a
4E	.	.	4g
2D	.	1B	2f
.	4c	.	.
[2E	4B	.	[2g
.	4A	.	.
=24	=24	=24	=24
4E]	2B	1E	4g]
4D	.	.	4f
4C	1c	.	4e
4BB	.	.	4d
4AA	.	[1e	2c
4BB	.	.	.
4C	4B	.	2cc
4D	4A	.	.
=25	=25	=25	=25
2E	2G	2e]	4b
.	.	.	4a
2F	2A	2d	1a
1E	1B	1e	.
.	.	.	2g#i
=26	=26	=26	=26
2r	2r	0c	0a
2F	2A	.	.
2F	4A	.	.
.	4B	.	.
2F	4c	.	.
.	4d	.	.
=27	=27	=27	=27
4G	2e	0r	0r
4F	.	.	.
4E	1d	.	.
4D	.	.	.
1E	.	.	.
.	2c#i	.	.
=28	=28	=28	=28
1D	2d	2r	2r
.	4D	2A	2f
.	4E	.	.
1r	4F	4A	2f
.	4G	4B	.
.	2A	4c	2f
.	.	4d	.
=29	=29	=29	=29
0r	2G	2e	4g
.	.	.	4f
.	2B	1d	4e
.	.	.	4d
.	1A	.	1e
.	.	2c#i	.
=30	=30	=30	=30
1r	1D	2d	0d
.	.	2A	.
1D	1r	2A	.
.	.	2B	.
=31	=31	=31	=31
1E	1r	4c	0r
.	.	4B	.
.	.	4A	.
.	.	4G	.
1D	2r	2A	.
.	2A	[2F	.
=32	=32	=32	=32
1D	2A	2F]	0r
.	2B	4E	.
.	.	4D	.
1C	4c	1E	.
.	4B	.	.
.	4A	.	.
.	4G	.	.
=33	=33	=33	=33
1D	4F	1D	0r
.	4E	.	.
.	2.A	.	.
2.E	.	1r	.
.	4G	.	.
.	2G	.	.
4D	.	.	.
=34	=34	=34	=34
4C	2E	2r	2r
4BB	.	.	.
1D	1F	2d	2a
.	.	2d	2a
4C	4E	2d	2b
4BB	4D	.	.
=35	=35	=35	=35
1AA	1E	4c	2.cc
.	.	4d	.
.	.	4e	.
.	.	4c	4b
1r	2r	4d	4a
.	.	4e	4g
.	2D	[2f	[2a
=36	=36	=36	=36
2r	4D	4f]	4a]
.	4E	4e	4g
2D	4F	4d	4f
.	4G	4c	4e
4D	1A	1d	1f
4E	.	.	.
4F	.	.	.
4G	.	.	.
=37	=37	=37	=37
2.A	2r	1c	1e
.	2A	.	.
4F	.	.	.
4G	1d	1r	1r
4A	.	.	.
[2B-i	.	.	.
=38	=38	=38	=38
4B-]	2.c	0r	2r
4A	.	.	.
1A	.	.	2a
.	4B	.	.
.	2c	.	2f
2G	[2d	.	[2b-i
=39	=39	=39	=39
1A	2d]	1A	4b-]
.	.	.	4a
.	2c	.	1a
1r	1B	1d	.
.	.	.	2g#i
=40	=40	=40	=40
2r	1A	2.c	1a
2A	.	.	.
.	.	4B	.
2F	1r	2c	1r
[2B-i	.	[2d	.
=41	=41	=41	=41
4B-]	1A	2d]	2r
4A	.	.	.
1A	.	2c	2a
.	1d	1B	2f
2G	.	.	2g
=42	=42	=42	=42
2A	2.c	1A	2e
2.F	.	.	2.a
.	4B	.	.
.	2A	2r	.
4E	.	.	4g
4D	[2B	[2F	4f
4C	.	.	4e
=43	=43	=43	=43
4D	4B]	4F]	2f
4C	4A	4E	.
4BB	4G	4D	2.g
4AA	4F	4C	.
1BB	2G	2.D	.
.	.	.	4f
.	4A	.	8gL
.	.	.	8f
.	4G	4E	8e
.	.	.	8dJ
=44	=44	=44	=44
[0AA	1A	4F	1c
.	.	4E	.
.	.	4F	.
.	.	4G	.
.	1E	4A	2r
.	.	4B	.
.	.	(2c	2e
=45	=45	=45	=45
0AA]	1r	4c)	1f
.	.	4B	.
.	.	1d	.
.	2r	.	1e
.	2A	2c#i	.
=46	=46	=46	=46
2r	2B	1d	0r
2D	2A	.	.
1D	[1d	2r	.
.	.	2A	.
=47	=47	=47	=47
1G	2d]	1B	1r
.	4c	.	.
.	4B	.	.
[1F	2c	1A	2r
.	2d	.	2a
=48	=48	=48	=48
1F]	1A	2r	4a
.	.	.	4b
.	.	2A	4cc
.	.	.	4a
2r	1r	2B	2.dd
2D	.	2A	.
.	.	.	4cc
=49	=49	=49	=49
1D	2r	1.d	4b
.	.	.	4a
.	2A	.	2.a
1G	1B	.	.
.	.	.	4f#i
.	.	4c	2g#i
.	.	4B	.
=50	=50	=50	=50
2.F	1A	2c	1a
.	.	2.d	.
4E	.	.	.
2F	1r	.	2r
.	.	4c	.
[2G	.	2B	2d
=51	=51	=51	=51
2G]	2r	1A	1d
2F	2A	.	.
1E	2B	1G	1g
.	2c	.	.
=52	=52	=52	=52
2r	2.d	0r	2.f
1D	.	.	.
.	4c	.	4e
.	4d	.	2f
.	4B	.	.
2C	[2e	.	[2g
=53	=53	=53	=53
1D	2e]	2r	2g]
.	2d	2A	2f
[1E	2c	2G	1e
.	4B	2A	.
.	4A	.	.
=54	=54	=54	=54
2E]	2G	2B	2r
2C	2A	1c	2a
1C	1E	.	2g
.	.	4B	2a
.	.	4A	.
=55	=55	=55	=55
2BB	2r	2G	2b
2AA	2A	1e	1cc
[1E	2G	.	.
.	2A	4d	4b
.	.	4c	4a
=56	=56	=56	=56
1E]	2B	2e	2.g
.	2.c	2E	.
.	.	.	4f
2r	.	2r	4e
.	4B	.	4d
[2D	4A	2A	[2f
.	4G	.	.
=57	=57	=57	=57
2D]	4F	2B	2f]
.	4E	.	.
2C	1A	2.c	2e
2D	.	.	2f
.	.	4B	.
2E	2G	4B	[2g
.	.	4A	.
=58	=58	=58	=58
1C	2E	1c	4g]
.	.	.	4f
.	2G	.	1e
1D	1F	[1A	.
.	.	.	2d
=59	=59	=59	=59
1AA	2E	1A]	0e
.	1A	.	.
2r	.	2r	.
2E	2G	2B	.
=60	=60	=60	=60
2F	2A	1d	0r
2G	2B	.	.
2E	1c	1e	.
[2A	.	.	.
=61	=61	=61	=61
4A]	1B	1e	0r
4G	.	.	.
4G	.	.	.
8FL	.	.	.
8GJ	.	.	.
2A	1r	1e	.
[2AA	.	.	.
=62	=62	=62	=62
4AA]	2r	2.e	0r
4BB	.	.	.
4C	2E	.	.
4AA	.	8dL	.
.	.	8eJ	.
2BB	1G	2d	.
[2C	.	2e	.
=63	=63	=63	=63
4C]	1A	2E	0r
4AA	.	.	.
2D	.	2F	.
2C	1A	2E	.
2D	.	[2F	.
=64	=64	=64	=64
2D	1A	2F]	1r
4C	.	4E	.
4BB	.	4D	.
4AA	2.A	1E	2r
4BB	.	.	.
4C	.	.	2e
4D	8GL	.	.
.	8AJ	.	.
=65	=65	=65	=65
1E	2G	2r	1g
.	2.c	2.e	.
1r	.	.	1a
.	4B	4d	.
.	4A	2f	.
.	4G	.	.
=66	=66	=66	=66
1r	2.A	4e	1a
.	.	4d	.
.	.	4c	.
.	4B	4B	.
2r	2c	2A	1a
2D	[2d	[2f	.
=67	=67	=67	=67
2F	4d]	2f]	1a
.	4c	.	.
2F	4B	2d	.
.	4A	.	.
1E	2B	1e	1g
.	[2c	.	.
=68	=68	=68	=68
2AA	4c]	1c	2.a
.	4B	.	.
2.F	4A	.	.
.	4G	.	4b
.	2A	2r	2cc
4E	.	.	.
[2G	2B	2d	[2b
=69	=69	=69	=69
4G]	2E	2B	4b]
4F	.	.	4a
4E	2.e	1c	4g
4D	.	.	4f
1A	.	.	2e
.	4d	.	.
.	4c	2A	[2cc
.	4B	.	.
=70	=70	=70	=70
2F	2A	2.c	4cc]
.	.	.	4b
2A	2c	.	1a
.	.	4d	.
1E	1B	[1e	.
.	.	.	2g#i
=71	=71	=71	=71
1r	1A	2e]	1a
.	.	8eL	.
.	.	8d	.
.	.	8c	.
.	.	8BJ	.
1A	1r	1c	1e
=72	=72	=72	=72
2G	0r	2r	1.e
2.c	.	1A	.
4A	.	.	.
2B	.	2G	2g
=73	=73	=73	=73
1A	1r	1c	2f
.	.	.	1e
2G	2r	2B	.
2F	[2A	2A	2d
=74	=74	=74	=74
2.E	2A]	1B	[0e
.	2G	.	.
4D	.	.	.
4C	2.c	2.E	.
4AA	.	.	.
4C	.	.	.
4D	4B	4F	.
=75	=75	=75	=75
4E	4B	2G	0e]
4AA	4A	.	.
1A	2c	2A	.
.	1B	1E	.
2G#i	.	.	.
=76	=76	=76	=76
2A	0A	2r	2r
2AA	.	2E	2c
2AA	.	2E	2c
2AA	.	2E	2c
=77	=77	=77	=77
1D	2r	1F	1d
.	2A	.	.
1AA	2A	[1E	1e
.	2A	.	.
=78	=78	=78	=78
0r	2B	1E]	2r
.	2.c	.	2g
.	.	2r	2a
.	4B	.	.
.	4A	2A	[2cc
.	4G	.	.
=79	=79	=79	=79
0r	4F	2A	2cc]
.	4E	.	.
.	2F	2A	4b
.	.	.	4a
.	2E	1B	4g
.	.	.	4f
.	[2G	.	4e
.	.	.	4d
=80	=80	=80	=80
2r	4G]	[0A	2e
.	4F	.	.
2AA	2F	.	2.a
2AA	2E	.	.
.	.	.	4g
2AA	2F	.	[2f
=81	=81	=81	=81
1D	2D	1A]	4f]
.	.	.	4e
.	2F	.	1d
1AA	1E	2r	.
.	.	2A	2c#i
=82	=82	=82	=82
2r	1D	2A	1d
2D	.	2B	.
2E	2r	2.c	1r
2F	2A	.	.
.	.	4A	.
=83	=83	=83	=83
2D	2A	2B	1r
2E	2G	2B	.
1F	2.c	1A	2r
.	.	.	2a
.	4A	.	.
=84	=84	=84	=84
1E	2B	2r	2a
.	1c	2e	2g
1AA	.	[1e	2.cc
.	4B	.	.
.	4A	.	4cc
=85	=85	=85	=85
2r	2G	2e]	2b
2A	4A	2c	1cc
.	4B	.	.
2A	4c	2A	.
.	4B	.	.
2G	[2d	2B	4b
.	.	.	4a
=86	=86	=86	=86
2.c	4d]	4c	1g
.	4c	4d	.
.	1c	4e	.
4B	.	4d	.
2A	.	2f	2a
2G	2B	[2e	[2b
=87	=87	=87	=87
2A	2c	2e]	4b]
.	.	.	4a
2F	2A	2d	1a
1E	1B	1e	.
.	.	.	2g#i
=	=	=	=
00AA	00A	00e	00a
=||	=||	=||	=||
*M2/1	*M2/1	*M2/1	*M2/1
*met(C|)	*met(C|)	*met(C|)	*met(C|)
!!section: Secunda pars: Peccavimus, peccavimus
!!!OMD: Secunda pars: Peccavimus, peccavimus
0A	0r	0c	0e
=88	=88	=88	=88
1G	1r	1B	1e
1F	[1A	1A	1d
=89	=89	=89	=89
0E	1A]	0B	0e
.	1G	.	.
=90	=90	=90	=90
1r	1.A	1r	1r
[1A	.	[1c	1e
.	2B	.	.
=91	=91	=91	=91
1A]	1c	1c]	1f
1G	[1d	1B	1g
=92	=92	=92	=92
1F	2d]	1A	0c
.	2c	.	.
1E	[1c	[1G	.
=93	=93	=93	=93
0D	1c]	1G]	0d
.	1B	1F	.
=94	=94	=94	=94
0C	[0c	0G	[0e
=95	=95	=95	=95
1r	0c]	1r	0e]
1C	.	1E	.
=96	=96	=96	=96
1.C	2r	1.e	2r
.	2c	.	2g
.	1c	.	2g
2C	.	2e	2g
=97	=97	=97	=97
1G	1B	1d	1g
2F	1c	[1f	[1a
[2E	.	.	.
=98	=98	=98	=98
2E]	1d	1f]	1a]
2D	.	.	.
1E	1B	1e	1g
=99	=99	=99	=99
2r	1.c	2r	2r
2C	.	2E	2g
2C	.	2e	2g
2C	4B	2e	2g
.	4A	.	.
=100	=100	=100	=100
2.G	1B	1d	4g
.	.	.	4a
.	.	.	4b
8FL	.	.	4g
8GJ	.	.	.
4F	2.A	2.f	4a
4E	.	.	4b
[2A	.	.	[2cc
.	4B	4d	.
=101	=101	=101	=101
2A]	2c	2e	4cc]
.	.	.	4b
2D	2d	2f	1a
1E	1B	[1e	.
.	.	.	2g#i
=102	=102	=102	=102
0AA	1A	2e]	1a
.	.	8eL	.
.	.	8d	.
.	.	8c	.
.	.	8BJ	.
.	2r	4c	2r
.	.	4B	.
.	2A	[2e	2cc
=103	=103	=103	=103
0r	2G	4e]	2b
.	.	4d	.
.	2.A	4c	2.cc
.	.	4B	.
.	.	1A	.
.	4G	.	4b
.	2F	.	2a
=104	=104	=104	=104
2r	2E	2r	2g
2A	2.e	2c	2a
2G	.	2B	[1e
.	4d	.	.
[2A	4c	[2c	.
.	4B	.	.
=105	=105	=105	=105
4A]	2A	4c]	1e]
4G	.	4B	.
2F	2.c	2A	.
2E	.	2G	2r
.	4B	.	.
[2G	2B	[2B	2e
=106	=106	=106	=106
2G]	2G	4B]	1d
.	.	4A	.
2F	2A	2A	.
4E	2B	2G	1e
4D	.	.	.
4C	[2c	[2A	.
4BB	.	.	.
=107	=107	=107	=107
2AA	2c]	2A]	1e
1A	4B	4G	.
.	4A	4F	.
.	1B	1E	1e
2G	.	.	.
=108	=108	=108	=108
2F	2r	1A	1f
4E	2A	.	.
4D	.	.	.
2C	2A	1r	1e
[2D	2A	.	.
=109	=109	=109	=109
2D]	2.A	1r	1e
2C	.	.	.
.	4G	.	.
1D	2F	2r	2r
.	4E	2d	2a
.	4D	.	.
=110	=110	=110	=110
1AA	2E	2d	2a
.	2E	2c	2a
1r	2D	4d	4a
.	.	4e	4g
.	2A	4f	4a
.	.	4d	4b
=111	=111	=111	=111
2r	2A	2e	2cc
2D	2A	2f	2.dd
2D	1B	2d	.
.	.	.	4cc
2D	.	2f	4b
.	.	.	4a
=112	=112	=112	=112
1E	1.c	1e	2g
.	.	.	4a
.	.	.	4g
2.F	.	1A	1a
.	4B	.	.
4E	4A	.	.
=113	=113	=113	=113
4D	2B	2r	0r
4C	.	.	.
4BB	1A	2d	.
4AA	.	.	.
1BB	.	2d	.
.	2G#i	2d	.
=114	=114	=114	=114
1AA	2A	4c	2r
.	.	4B	.
.	2.c	4A	2a
.	.	4G	.
1r	.	4A	2a
.	4B	4G	.
.	[2d	4F	2a
.	.	4E	.
=115	=115	=115	=115
0r	4d]	1F	1a
.	4c	.	.
.	4B	.	.
.	4A	.	.
.	2B	2E	1g
.	[2c	[2e	.
=116	=116	=116	=116
2r	4c]	4e]	1a
.	4B	4d	.
2AA	4A	1c	.
.	4G	.	.
2AA	1A	.	[1cc
2AA	.	4B	.
.	.	4A	.
=117	=117	=117	=117
2.C	1G	1e	2.cc]
4D	.	.	8bL
.	.	.	8ccJ
2E	1r	2r	4b
.	.	.	4a
2D	.	2A	[2dd
=118	=118	=118	=118
1F	0r	2A	4dd]
.	.	.	4cc
.	.	2A	2.cc
1E	.	1c	.
.	.	.	4b
.	.	.	4g
.	.	.	4a
=119	=119	=119	=119
1D	1r	2.d	2b
.	.	.	2.a
.	.	4c	.
1r	1E	2B	.
.	.	.	4g
.	.	2c	[2g
=120	=120	=120	=120
1r	1D	1A	2g]
.	.	.	2f#i
2r	2.G	1G	1g
2E	.	.	.
.	8FL	.	.
.	8GJ	.	.
=121	=121	=121	=121
2D	2F	1r	2r
2C	1E	.	2g
1F	.	2r	4a
.	.	.	4g
.	2D	2A	4a
.	.	.	4b
=122	=122	=122	=122
1E	[0E	2A	2cc
.	.	2G	2.b
1AA	.	1c	.
.	.	.	4a
.	.	.	[2a
=123	=123	=123	=123
1r	1E]	1B	2a]
.	.	.	2g#i
2r	1r	1A	2a
2A	.	.	2e
=124	=124	=124	=124
2G	0r	2r	2.e
2.c	.	1A	.
.	.	.	4d
.	.	.	4e
4A	.	.	4f
2B	.	2G	2g
=125	=125	=125	=125
1A	1r	1c	2f
.	.	.	1e
2G	2r	2B	.
2F	[2A	2A	2d
=126	=126	=126	=126
2.E	2A]	1B	[0e
.	2G	.	.
4D	.	.	.
4C	2.c	2.E	.
4AA	.	.	.
4C	.	.	.
4D	4B	4F	.
=127	=127	=127	=127
4E	4B	2G	0e]
4AA	4A	.	.
1A	2c	2A	.
.	1B	1E	.
2G#i	.	.	.
=128	=128	=128	=128
2A	0A	2r	2r
2AA	.	2E	2c
2AA	.	2E	2c
2AA	.	2E	2c
=129	=129	=129	=129
1D	2r	1F	1d
.	2A	.	.
1AA	2A	[1E	1e
.	2A	.	.
=130	=130	=130	=130
0r	2B	1E]	2r
.	2.c	.	2g
.	.	2r	2a
.	4B	.	.
.	4A	2A	[2cc
.	4G	.	.
=131	=131	=131	=131
0r	4F	2A	2cc]
.	4E	.	.
.	2F	2A	4b
.	.	.	4a
.	2E	1B	4g
.	.	.	4f
.	[2G	.	4e
.	.	.	4d
=132	=132	=132	=132
2r	4G]	[0A	2e
.	4F	.	.
2AA	2F	.	2.a
2AA	2E	.	.
.	.	.	4g
2AA	2F	.	[2f
=133	=133	=133	=133
1D	2D	1A]	4f]
.	.	.	4e
.	2F	.	1d
1AA	1E	2r	.
.	.	2A	2c#i
=134	=134	=134	=134
2r	1D	2A	1d
2D	.	2B	.
2E	2r	2.c	1r
2F	2A	.	.
.	.	4A	.
=135	=135	=135	=135
2D	2A	2B	1r
2E	2G	2B	.
1F	2.c	1A	2r
.	.	.	2a
.	4c	.	.
=136	=136	=136	=136
1E	2B	2r	2a
.	1c	2e	2g
1AA	.	[1e	2.cc
.	4B	.	.
.	4A	.	4cc
=137	=137	=137	=137
2r	2G	2e]	2b
2A	4A	2c	1cc
.	4B	.	.
2A	4c	2A	.
.	4B	.	.
2G	[2d	2B	4b
.	.	.	4a
=138	=138	=138	=138
2.c	4d]	4c	1g
.	4c	4d	.
.	1c	4e	.
4B	.	4d	.
2A	.	2f	2a
2G	2B	[2e	[2b
=139	=139	=139	=139
2A	2c	2e]	4b]
.	.	.	4a
2F	2A	2d	1a
1E	1B	1e	.
.	.	.	2g#i
=140	=140	=140	=140
00AAl	00Al	00el	00al
==	==	==	==
*-	*-	*-	*-
!!!system-decoration: [*]
!!!RDF**kern: i = editorial accidental
!!!RDF**kern: l = terminal long
!!!ENC: Benjamin Ory
!!!END: 2021/1/11
!!!EED: Benjamin Ory
!!!EEV: 2021/05/02
!!!YEC: Copyright 2021 Benjamin Ory, All Rights Reserved
!!!ONB: Translated from MusicXML on 2021/05/02
